X:519
T:Mueira
R:Mueira
C:Tradicional
S:Msica Tradicional Asturiana, (C) Tello & Tito. Asturies, 2001.
S:http://pagina.de/MusTradAst <telloytito@asturies.org>
A:Asturies
O:Silvamayor (Valds)
Z:ByD IDEA
M:3/8
L:1/8
Q:3/8=120
K:C
|: cBA|GAG|FED|G2 G|cBA|GAG|FED|C3 :|
|: CDE|F2 F|FED|G2 E|EDE|F2 D|DCD|E2 C :|
|CDE|F2 F|FED|G2 E|EDE|FED|B,CD|C3|
